img/svg/about/building.svg

<svg width="24" height="24" viewBox="0 0 24 24" fill="none" xmlns="http://www.w3.org/2000/svg">
<mask id="path-1-inside-1_9224_32367" fill="white">
<path fill-rule="evenodd" clip-rule="evenodd" d="M22.1445 0.112324C22.2531 0.179515 22.3428 0.273342 22.405 0.384908C22.4673 0.496475 22.4999 0.622083 22.5 0.749824V23.2498C22.5 23.4487 22.421 23.6395 22.2803 23.7802C22.1397 23.9208 21.9489 23.9998 21.75 23.9998H17.25C17.0511 23.9998 16.8603 23.9208 16.7197 23.7802C16.579 23.6395 16.5 23.4487 16.5 23.2498V20.9998H15V23.2498C15 23.4487 14.921 23.6395 14.7803 23.7802C14.6397 23.9208 14.4489 23.9998 14.25 23.9998H0.75C0.551088 23.9998 0.360322 23.9208 0.21967 23.7802C0.0790176 23.6395 0 23.4487 0 23.2498V14.9998C0.00011947 14.8425 0.0497221 14.6892 0.141787 14.5616C0.233853 14.434 0.363717 14.3385 0.513 14.2888L9 11.4598V6.74982C9 6.61066 9.03873 6.47423 9.11185 6.35582C9.18496 6.23741 9.28958 6.14167 9.414 6.07932L21.414 0.0793236C21.5285 0.0220324 21.6557 -0.00501211 21.7835 0.00076422C21.9114 0.00654055 22.0357 0.0449455 22.1445 0.112324ZM9 13.0408L1.5 15.5398V22.4998H9V13.0408ZM10.5 22.4998H13.5V20.2498C13.5 20.0509 13.579 19.8601 13.7197 19.7195C13.8603 19.5788 14.0511 19.4998 14.25 19.4998H17.25C17.4489 19.4998 17.6397 19.5788 17.7803 19.7195C17.921 19.8601 18 20.0509 18 20.2498V22.4998H21V1.96332L10.5 7.21332V22.4998Z"/>
<path d="M3 16.4998H4.5V17.9998H3V16.4998ZM6 16.4998H7.5V17.9998H6V16.4998ZM3 19.4998H4.5V20.9998H3V19.4998ZM6 19.4998H7.5V20.9998H6V19.4998ZM12 13.4998H13.5V14.9998H12V13.4998ZM15 13.4998H16.5V14.9998H15V13.4998ZM12 16.4998H13.5V17.9998H12V16.4998ZM15 16.4998H16.5V17.9998H15V16.4998ZM18 13.4998H19.5V14.9998H18V13.4998ZM18 16.4998H19.5V17.9998H18V16.4998ZM12 10.4998H13.5V11.9998H12V10.4998ZM15 10.4998H16.5V11.9998H15V10.4998ZM18 10.4998H19.5V11.9998H18V10.4998ZM12 7.49982H13.5V8.99982H12V7.49982ZM15 7.49982H16.5V8.99982H15V7.49982ZM18 7.49982H19.5V8.99982H18V7.49982ZM18 4.49982H19.5V5.99982H18V4.49982Z"/>
</mask>
<path fill-rule="evenodd" clip-rule="evenodd" d="M22.1445 0.112324C22.2531 0.179515 22.3428 0.273342 22.405 0.384908C22.4673 0.496475 22.4999 0.622083 22.5 0.749824V23.2498C22.5 23.4487 22.421 23.6395 22.2803 23.7802C22.1397 23.9208 21.9489 23.9998 21.75 23.9998H17.25C17.0511 23.9998 16.8603 23.9208 16.7197 23.7802C16.579 23.6395 16.5 23.4487 16.5 23.2498V20.9998H15V23.2498C15 23.4487 14.921 23.6395 14.7803 23.7802C14.6397 23.9208 14.4489 23.9998 14.25 23.9998H0.75C0.551088 23.9998 0.360322 23.9208 0.21967 23.7802C0.0790176 23.6395 0 23.4487 0 23.2498V14.9998C0.00011947 14.8425 0.0497221 14.6892 0.141787 14.5616C0.233853 14.434 0.363717 14.3385 0.513 14.2888L9 11.4598V6.74982C9 6.61066 9.03873 6.47423 9.11185 6.35582C9.18496 6.23741 9.28958 6.14167 9.414 6.07932L21.414 0.0793236C21.5285 0.0220324 21.6557 -0.00501211 21.7835 0.00076422C21.9114 0.00654055 22.0357 0.0449455 22.1445 0.112324ZM9 13.0408L1.5 15.5398V22.4998H9V13.0408ZM10.5 22.4998H13.5V20.2498C13.5 20.0509 13.579 19.8601 13.7197 19.7195C13.8603 19.5788 14.0511 19.4998 14.25 19.4998H17.25C17.4489 19.4998 17.6397 19.5788 17.7803 19.7195C17.921 19.8601 18 20.0509 18 20.2498V22.4998H21V1.96332L10.5 7.21332V22.4998Z" stroke="#FBFBFB" stroke-width="2" mask="url(#path-1-inside-1_9224_32367)"/>
<path d="M3 16.4998H4.5V17.9998H3V16.4998ZM6 16.4998H7.5V17.9998H6V16.4998ZM3 19.4998H4.5V20.9998H3V19.4998ZM6 19.4998H7.5V20.9998H6V19.4998ZM12 13.4998H13.5V14.9998H12V13.4998ZM15 13.4998H16.5V14.9998H15V13.4998ZM12 16.4998H13.5V17.9998H12V16.4998ZM15 16.4998H16.5V17.9998H15V16.4998ZM18 13.4998H19.5V14.9998H18V13.4998ZM18 16.4998H19.5V17.9998H18V16.4998ZM12 10.4998H13.5V11.9998H12V10.4998ZM15 10.4998H16.5V11.9998H15V10.4998ZM18 10.4998H19.5V11.9998H18V10.4998ZM12 7.49982H13.5V8.99982H12V7.49982ZM15 7.49982H16.5V8.99982H15V7.49982ZM18 7.49982H19.5V8.99982H18V7.49982ZM18 4.49982H19.5V5.99982H18V4.49982Z" stroke="#FBFBFB" stroke-width="2" mask="url(#path-1-inside-1_9224_32367)"/>
</svg>

<svg width="24" height="24" fill="none" xmlns="http://www.w3.org/2000/svg"><mask id="a" fill="#fff"><path fill-rule="evenodd" clip-rule="evenodd" d="M22.145.112A.75.75 0 0122.5.75v22.5a.75.75 0 01-.75.75h-4.5a.75.75 0 01-.75-.75V21H15v2.25a.75.75 0 01-.75.75H.75a.75.75 0 01-.75-.75V15a.75.75 0 01.513-.711L9 11.459V6.75a.75.75 0 01.414-.67l12-6a.75.75 0 01.73.033zM9 13.041L1.5 15.54v6.96H9v-9.46zm1.5 9.459h3v-2.25a.75.75 0 01.75-.75h3a.75.75 0 01.75.75v2.25h3V1.963l-10.5 5.25V22.5z"/><path d="M3 16.5h1.5V18H3v-1.5zm3 0h1.5V18H6v-1.5zm-3 3h1.5V21H3v-1.5zm3 0h1.5V21H6v-1.5zm6-6h1.5V15H12v-1.5zm3 0h1.5V15H15v-1.5zm-3 3h1.5V18H12v-1.5zm3 0h1.5V18H15v-1.5zm3-3h1.5V15H18v-1.5zm0 3h1.5V18H18v-1.5zm-6-6h1.5V12H12v-1.5zm3 0h1.5V12H15v-1.5zm3 0h1.5V12H18v-1.5zm-6-3h1.5V9H12V7.5zm3 0h1.5V9H15V7.5zm3 0h1.5V9H18V7.5zm0-3h1.5V6H18V4.5z"/></mask><path clip-rule="evenodd" d="M22.145.112A.75.75 0 0122.5.75v22.5a.75.75 0 01-.75.75h-4.5a.75.75 0 01-.75-.75V21H15v2.25a.75.75 0 01-.75.75H.75a.75.75 0 01-.75-.75V15a.75.75 0 01.513-.711L9 11.459V6.75a.75.75 0 01.414-.67l12-6a.75.75 0 01.73.033zM9 13.041L1.5 15.54v6.96H9v-9.46zm1.5 9.459h3v-2.25a.75.75 0 01.75-.75h3a.75.75 0 01.75.75v2.25h3V1.963l-10.5 5.25V22.5z" stroke="#FBFBFB" stroke-width="2" mask="url(#a)"/><path d="M3 16.5h1.5V18H3v-1.5zm3 0h1.5V18H6v-1.5zm-3 3h1.5V21H3v-1.5zm3 0h1.5V21H6v-1.5zm6-6h1.5V15H12v-1.5zm3 0h1.5V15H15v-1.5zm-3 3h1.5V18H12v-1.5zm3 0h1.5V18H15v-1.5zm3-3h1.5V15H18v-1.5zm0 3h1.5V18H18v-1.5zm-6-6h1.5V12H12v-1.5zm3 0h1.5V12H15v-1.5zm3 0h1.5V12H18v-1.5zm-6-3h1.5V9H12V7.5zm3 0h1.5V9H15V7.5zm3 0h1.5V9H18V7.5zm0-3h1.5V6H18V4.5z" stroke="#FBFBFB" stroke-width="2" mask="url(#a)"/></svg>
